X: 6259
T: Carolan's Cup
R: jig
M: 6/8
K: Dmajor
de|f2e dfa|edB Afe|dcB A3|Bba bge|
f2e dfa|edB Afe|dcB A3|B3 B:|
c|d2c d2f|faf faf|e2d efa|b3 bab|
afe dfa|edB Afe|dcB A3|B3 B2:|

